X: 20209
T: Joe Bane's
R: polka
M: 2/4
K: Aminor
ea e/f/e/d/|ea e>d|cd ef|ga/g/ ed|
ea e/f/e/d/|ea e>d|cA B/A/G|A2A2:|
A/B/A/G/ EG|cd e>d|cA BG|A/B/A/G/ EG|
A/B/A/G/ EG|cd e>d|c>A B/A/G|A2A2:|

